X: 4
T: Nail That Catfish To The Tree
B: canberra pickers and fiddlers
B: old time tunes update
B: tunes
M:4/4
Q: 1/4=100
K:G
V:1 
D2|:G2 BG AGBG|cGAG B2 BG|ABAG F2 AB|AGFD (3EFE D2|
 G2 BG AGBG|cGAG B2 BG|ABAG FDEF|1 G4 G2 D2:|2 G4 G2 F2||
 E4 G4|c6 B2|ABAG F2 AB|AGFD (3EFE D2|
 E4 G4|c6 B2|ABAG FDEF|1 G4 G2 F2:|2 G6 D2||
% abcbook-tune_id 63454e75a482b81e2fa72519
% abcbook-tune_composer_id 
% abcbook-link-0 https://www.youtube.com/watch?v=RPG3APT_xWU
% abcbook-link-title-0 Della Mae - Nail that Catfish to a Tree - Live at Fur Peace Ranch
% abcbook-link-start-at-0 52
% abcbook-boost 0
% abcbook-difficulty 0
% abcbook-tags old time tunes,ralph cullen,© free
% abcbook-tablature 
% abcbook-transpose 
% abcbook-tuning GDAD
% abcbook-lastupdated 1739287188686
% abcbook-src-url https://tunebook.net/scrape/tunes.abc
% abcbook-soundfonts 
% abcbook-repeats 3


